actions/24/color-picker-white.svg

<svg xmlns="http://www.w3.org/2000/svg" viewBox="0 0 24 24">
  <defs id="defs3051">
    <style type="text/css" id="current-color-scheme">
      .ColorScheme-Text {
        color:#808080;
      }
      </style>
  </defs>
 <g transform="translate(-377.85714-539.07647)">
  <g style="fill:currentColor;fill-opacity:1;stroke:none" 
	 class="ColorScheme-Text"
	 >
   <path d="m386.85714 543.07647c-.97291 3.40503-3.35445 6.33228-4.4043 8.67578-.3674.69677-.5957 1.4788-.5957 2.32422 0 2.77 2.23 5 5 5 2.77 0 5-2.23 5-5 0-.84542-.2283-1.62745-.5957-2.32422-1.04985-2.3435-3.4314-5.27075-4.4043-8.67578m2.2832 7.7168c1.0377.7212 1.7168 1.91828 1.7168 3.2832 0 2.216-1.784 4-4 4-1.36496 0-2.562-.67905-3.2832-1.7168.64705.44971 1.43212.7168 2.2832.7168 2.216 0 4-1.784 4-4 0-.85108-.26709-1.63616-.7168-2.2832"/>
   <rect width="7" height="7" x="390.85715" y="543.07648" rx="3.5"/>
  </g>
  <rect y="544.07648" x="391.85715" height="5" width="5" rx="2.5" style="fill:#fff"/>
 </g>
</svg>

<svg xmlns="http://www.w3.org/2000/svg" version="1.1" viewBox="0 0 24 24">
 <defs>
  <style id="current-color-scheme" type="text/css">
   .ColorScheme-Text { color:#808080; }
  </style>
 </defs>
 <g transform="translate(-377.86,-539.08)">
  <g class="ColorScheme-Text" style="color:#808080;fill:currentColor">
   <path d="M 386.86,543.08 C 385.88,546.48 383.5,549.41 382.45,551.75 382.09,552.45 381.86,553.23 381.86,554.08 381.86,556.85 384.09,559.08 386.86,559.08 389.63,559.08 391.86,556.85 391.86,554.08 391.86,553.23 391.63,552.45 391.26,551.75 390.21,549.41 387.83,546.48 386.86,543.08 M 389.14,550.79 C 390.18,551.51 390.86,552.71 390.86,554.08 390.86,556.29 389.07,558.08 386.86,558.08 385.49,558.08 384.3,557.4 383.57,556.36 384.22,556.81 385.01,557.08 385.86,557.08 388.07,557.08 389.86,555.29 389.86,553.08 389.86,552.23 389.59,551.44 389.14,550.79"/>
   <rect width="7" height="7" x="390.86" y="543.08" rx="3.5"/>
  </g>
  <rect width="5" height="5" x="391.86" y="544.08" rx="2.5" style="fill:#ffffff"/>
 </g>
</svg>
